/* XPM */
static char * tray_icon2_xpm[] = {
"24 24 6 1",
" 	c None",
".	c #2AFF2F",
"+	c #89FF8C",
"@	c #00DB05",
"#	c #000000",
"$	c #0C840F",
"         ......         ",
"      ...++++++...      ",
"     .+++@@@@@@+++.     ",
"    .+@@@##@##@@@@+.    ",
"   .+@@@@#####@@@@@+.   ",
"  .+@@@@@@###@@@@@@@+$  ",
" .+@@@@@@#####@@@@@@@+$ ",
" .+@@@@@@#####@@@@@@@+$ ",
" .+@@@@@@@@#@@@@@@@@@+$ ",
".+@@##@@@@###@@@##@@@@+$",
".+@@##@@@@###@@@##@@@@+$",
".+@@@@###@@#@###@@@@@@+$",
".+@@@@@########@@@@@@@+$",
".+@@@@@@@@###@@@@@@@@@+$",
".+@@@@@@@@@#@@@@@@@@@@+$",
" .+@@@@@@#####@@@@@@@+$ ",
" .+@@@@@@##@##@@@@@@@+$ ",
" .+@@@@@@#@@@#@@@@@@@+$ ",
"  .+@@@##@@@@@##@@@@+$  ",
"   $+@@##@@@@@##@@@+$   ",
"    $+@@@@@@@@@@@@+$    ",
"     $+++@@@@@@+++$     ",
"      $$$++++++$$$      ",
"         $$$$$$         "};
