/* XPM */
static char * tray_icon1_xpm[] = {
"24 24 6 1",
" 	c None",
".	c #FF0000",
"+	c #FF7E7E",
"@	c #B30000",
"#	c #000000",
"$	c #6C0505",
"         ......         ",
"      ...++++++...      ",
"     .+++@@@@@@+++.     ",
"    .+@@@##@##@@@@+.    ",
"   .+@@@@#####@@@@@+.   ",
"  .+@@@@@@###@@@@@@@+$  ",
" .+@@@@@@#####@@@@@@@+$ ",
" .+@@@@@@#####@@@@@@@+$ ",
" .+@@@@@@@@#@@@@@@@@@+$ ",
".+@@##@@@@###@@@##@@@@+$",
".+@@##@@@@###@@@##@@@@+$",
".+@@@@###@@#@###@@@@@@+$",
".+@@@@@########@@@@@@@+$",
".+@@@@@@@@###@@@@@@@@@+$",
".+@@@@@@@@@#@@@@@@@@@@+$",
" .+@@@@@@#####@@@@@@@+$ ",
" .+@@@@@@##@##@@@@@@@+$ ",
" .+@@@@@@#@@@#@@@@@@@+$ ",
"  .+@@@##@@@@@##@@@@+$  ",
"   $+@@##@@@@@##@@@+$   ",
"    $+@@@@@@@@@@@@+$    ",
"     $+++@@@@@@+++$     ",
"      $$$++++++$$$      ",
"         $$$$$$         "};
